X:1
T:Title
%%score ( 1 2 )
L:1/8
Q:1/4=120
M:none
K:Bb
V:1 bass nm="Part_1"
V:2 bass 
V:1
 z2 | x8 | x8 | x8 | z4 z2 z[K:treble]!mf! !arpeggio!A | %5
 (3(f/e/d/) (3(f/e/d/) (f/e/d/) (Mf/e/d/) dAAd | %6
 !tenuto!f'4 (!arpeggio!e/d/ =c2) (e/d/ c2) (g/f/ e2) (g/f/ e2) fd z f | %7
 e2 ^ga- a/e/d/=c/ (d2 g)a- a/f/e/d/ | (Td=c) z!p! e (3(f/=g/a/ (3_b/a/b/) (f/g/a/ b/a/b/) | %9
 (!arpeggio!e2 f/g/ a/g/ a/) (e2 f/g/ a/g/a/) (d/e/f/ g/f/g/) (d/e/f/ g/f/g/) | %10
 (c2 d/e/ f/e/ f/) (c2 d/e/ f/e/f/) (=B/c/d/ e/d/e/) (B/c/d/ e/d/e/) | %11
 !tenuto!g'4 _c[K:bass]G,, z[K:treble]!f! !arpeggio!c TcBB=c | %12
 da- a=g/f/ e/d/ _c/B/[K:bass] G,/F,/ E,/D,/ | C,/ B,,/ A,,/G,,/ D,D,, G,,2 z2 | x8 | x8 | %16
 !tenuto!B4[K:bass] z4[K:treble]!f! a2 g/4f/4 e/4f/4e/4d/4 c/4f/4e/4d/4 c/4d/4c/4B/4 | %17
[K:bass] G,/D,/B,,/G,,/ G,/D,/B,,/G,,/[K:treble]!p! a2 g/4f/4 e/4f/4e/4d/4 c/4f/4e/4d/4 c/4d/4c/4B/4 | %18
[K:bass] G,/D,/B,,/G,,/ G,/D,/B,,/G,,/ D,2 z2 | %19
[K:treble]!mf! !arpeggio!_f2- (3f/(f/g/(3a/g/f/) e2- e/(e/f/g/f/e/) | %20
 d2- d/(d/e/f/e/d/) =c2- c/(c/d/e/f/g/) | f2 z!p! f (g/f/g/)a/ (f/e/f/)g/ | %22
 e3 e f/e/f/g/ _e/d/e/f/ | %23
 !arpeggio!_d3 d =e/4[K:bass]_A,/4G,/4F,/4=E,/4_D,/4C,/4 B,,[K:treble]!arpeggio!e x/4 | %24
 f/4[K:bass]E,/4D,/4C,/4B,,/8A,,/4 G,,/4F,,/4 E,,[K:treble]!arpeggio!f g/4[K:bass]_A,/4G,/4F,/4E,/4D,/4C,/4 B,,[K:treble]!arpeggio!g x3/8 | %25
 (a/f/e/f/) (_b/f/e/f/) (c/f/e/f/) (b/(3f/e/!^!f/) x/ | (!>!c/!>!f/ e/f/)!>(! g2!>)!!f! g2 z2 | %27
 x8 | z8 | z4 z2 z d | (3(g/=f/g/ (3a/g/f/) (3(g/f/g/ (3a/g/f/) gMd dd | %31
 (3(_e/c/d/ e/d/ c2) (3(=F/c/d/ e/d/ c2) _BG z d | (3_e/-f/g/ (3g/f/e/ e/-d/ =c2 c2 d/e/ d3 A | %33
 !tenuto!f'4 (3_d/-_e/f/ (3f/e/d/ d/-_c/=B/ B/c/d/ d3 G | %34
 (3c/-d/_e/ e/d/ c2 c/-_B/A/ A/B/c/ (B/c/d/ d/e/f/) (f/e/d/ d/c/B/) | %35
 (g/f/ !arpeggio!=e2 d/c/ _B/) TA3/2 B/ B2 z2 | z4 z2 z A | %37
 d/f/d/f/ A/f/F/f/[K:bass] _A,,/[K:treble]!arpeggio!g/d/g/ _B/g/G/g/ | %38
[K:bass] =B,,/[K:treble]a/e/a/ =c/a/A/a/[K:bass] C,/[K:treble]_b/f/b/ e/g/=c/e/ | %39
[K:bass] G,,2 z[K:treble] !arpeggio!A (3d/-e/f/ (3f/e/d/ d/-e/f/ f/e/d/ | %40
 (_d=c) z _c _B/-c/d/ d/c/B/ B/-c/d/ d/c/B/ | _BA z A (f/e/f/ g/e/g/) g/-e/f/ g/e/g/ | %42
 (gf) z g e/-d/ e2 f | d/-=c/ d2 e c2 z e | (3!arpeggio!_f/-g/a/ (3a/g/f/ f/-g/a/ a/g/f/ (f2 e2) | %45
 e2- f/g/ g/f/ e2 e2- f/g/ g/f/ e2 (e2 d2) | %46
 (3d/-e/f/ (3f/e/d/ d/-e/f/ f/e/d/[K:bass] =B,/G,,/C/G,,/ D/G,,/E/G,,/ | %47
[K:treble] _g2- g/e/f/ g/ f/ e2 f/d/e/ f/e/d/!>(! e2!>)! | %48
 (3d/[K:bass]G,/E,/ C,2 G,,/E,,/ C,,2 z4 | x8 | x8 | !fermata!z8 | %52
 !arpeggio!!tenuto!B4[K:bass]!p! !arpeggio!B8 | z4 z2 z[K:treble]!p! A | %54
 (f/d/=c/d/) (f/d/c/d/) !tenuto!g!tenuto!f z e | (f/e/d/_B/) (B/A/^G/A/) A2 z A | %56
 (_f/d/=c/d/) (^g/e/d/e/) a2 z d | (_c/d/e/f/) T^G>A A2 z2 | z8 | z2 z!p! e fa- a/f/ e/d/ | %60
 ea- a/e/d/c/ da- a/!pp!f/ e/d/ | _c2 z!mp! f!<(! d2- d/g/ a/!<)!_b/ | %62
!>(! e/d/c!>)! z!mp! g ag/f/ MTe>f | f2 z2 z4 | z4 z2 z!p! A | %65
 (f/d/=c/d/) (f/d/c/d/) !tenuto!g!tenuto!f z e | %66
 (_f/=e/d/_B/) (B/A/^G/e/) (e/d/=c/=g/) (g/f/e/f/) | %67
 (f/(3:2:2=e/ z/4 (3!>!d/!>!g/) z/ (3:2:2(g/ z/4 f/e/f/) (f/e/d/g/) (g/f/e/f/) x3/4 | %68
!f! (f/g/ a/_b/) MT=c>d d2 z2 | x8 | !fermata!z8 |[K:F][K:bass] !arpeggio!M[A,,C,_E,]4 x4 | x8 | %73
 x8 | x8 | x8 |!f! C/E/C/E/ C,,2 C,2 x2 ||[K:Bb] B,/D/B,/D/ F,,/D/ x5 | C/E/C/E/ C,,/C/ x5 | %79
 =B,G,, z x5 |!p! C/E/C/E/ C,/E/ x5 | F,/F,/4G,/4 _A,/A,/4B,/4C x5 | B,/D/B,/D/ D,/D/ x5 | %83
 E,/E,/4F,/4 G,/G,/4_A,/4B, x5 | _A,/C/A,/C/ _A,,/C/ x5 | D,/D,/4E,/4 F,/F,/4!>!G,/4_A, x5 | %86
 =B,/4C/4D/4C/4 B,/4C/4D/4C/4 B,/4=A,/4 G,/4F,/4 x5 | E,/C,/E,/G,/C/E/ x5 | ^F,/D,/F,/A,/D/A,/ x5 | %89
 B,/4G,/4=F,/4E,/4 D,/4E,/4D,/4C,/4 B,,/4C,/4B,,/4A,,/4 x5 | G,,/D/ B,/A,/4G,/4 A,/G,/4^F, x17/4 | %91
 G,2 z x5 | z8 | x8 | x8 | x8 | x8 |!p! (ag)f x5 | f e2 x5 | (fe)d x5 | d c2 x5 | %101
 !arpeggio!e=f/^g/ a/b/ x5 | (c'b)a x5 | (d'b)a x5 | z ^g2 x5 | %105
[K:bass] (3D/C/D/ (3B,/A,/B,/ (3G,/=F,/G,/ x5 | (3E,/D,/E,/ (3C,/B,,/C,/A,, x5 | %107
 C/B,/C/ A,/G,/A,/ F,/E,/ F,/ x7/2 | D,/C,/D,/ B,,/A,,/B,,/G,, x4 | %109
 B,/A,/B,/ G,/F,/G,/ E,/D,/ E,/ x7/2 | C,/B,,/C,/ A,,/G,,/A,,/F,, x4 | %111
[K:treble]!mf! f(Tf/e/f/)g/ x5 | e(Te/d/e/)f/ x5 | d(Td/c/d/)e/ x5 | c/_B/A/(G/F) x5 | %115
!p! (3f/c/_B/ A2 G/F/[K:bass] G,,/_A,,/B,,/ x5/2 | _A,,2 z x5 | %117
[K:treble] g/d/ c2 =B/A/ G/[K:bass] =A,,/=B,,/ C,2 x/ | B,,2 z x5 | %119
[K:treble]!mf! a2 e/d/ =c/B/ A/[K:bass] =B,,/C,/D,/ x2 | C,2 z x5 | %121
[K:treble] (3!wedge!_f/c/f/ a/f/ a/ f/c/f/ x4 | %122
 c/A/(3:2:2c/ z/4 (3!>!f/!>!c/ z/ (3:2:2f/ z/4 (3a/f/a/ x19/4 | !>!f/!>!c/f/ Tg2 x9/2 | f2 z x5 | %125
 x8 | x8 |!mf! (_f/4c/4d/4c/4) (f/4c/4d/4c/4) (f/4c/4d/4c/4) | f/c/A/[K:bass]=E,/C,/A,,/ x5 | %129
[K:treble] (f/4c/4d/4c/4) (f/4c/4d/4c/4) (f/4c/4d/4c/4) x5 | f/c/A/[K:bass]=E,/C,/A,,/ x5 | %131
[K:treble] (f/4=c/4d/4c/4) (f/4c/4d/4c/4) (f/4c/4d/4c/4) x5 | =e/=c/A/[K:bass]F,/=B,,/G,,/ x5 | %133
[K:treble] (g/4=e/4f/4e/4) (g/4e/4f/4e/4) (g/4e/4f/4e/4) x5 | g/=e/=c/[K:bass]G,/D,/G,,/ x5 | %135
[K:treble] (a/4f/4=e/4f/4) (a/4f/4e/4f/4) (a/4f/4e/4f/4) x5 |!<(! (_b/a/g/f/ =e/d/) x5 | %137
 MTd2!<)! =c x5 | g'4 x4 | x8 |!f! z =e/f/g/a/[K:bass]G,/ x9/2 | %141
 G,,/[K:treble]!arpeggio!d/=e/f/g/[K:bass]F,/ x5 | %142
 F,,/[K:treble]!arpeggio!=c/d/=e/f/[K:bass]G,/ x5 | G,,/D,/=B,/D,/G,,/D,/ x5 | %144
 G,,/=E,/C/E,/G,,/E,/ x5 | G,,/F,/D/F,/G,,/F,/ x5 | G,,/E,/C/E,/G,,/E,/ x5 | [G,,D,=B,]2 z x5 | %148
 C/4E/4C/4E/4 C/4D/4_B,/4C/4 _A,/4B,/4G,/4A,/4 x5 | %149
 F,/4 _A,/8G,/4A,/4 F,/4G,/4E,/4F,/4 D,/4E,/4C,/4D,/4 x41/8 | %150
 =B,,/4F,/4E,/4F,/4 D,/4E,/4C,/4D,/4 B,,/4C,/4=A,,/4B,,/4 x5 | G,,2 z x5 | %152
[K:treble]!mf! (d/4=c/4d/) (d/4c/4d/) (.d/4c/4d/) x5 |!>(! (fe!>)!d) x5 | %154
!mf! (d/4=c/4d/) (d/4c/4d/) (.d/4c/4d/) x5 | a(g/f/) (e/d/) x5 | f/e/ T=c2 x5 | d3 x5 | %158
 g'4 (d/4=c/4d/) (.d/4c/4d/) (.d/4c/4d/) x | (^gaf) x5 | (d/4=c/4d/) (d/4c/4d/) (.d/4c/4d/) x5 | %161
 (^GA=g) x5 | (3(f/e/d/) !tenuto!Te2 x5 | g'4 T_d2 z x | x8 | x8 | x8 | x8 | z8 | !fermata!z8 |] %170
V:2
 z2 | x8 | x8 | x8 | x7[K:treble] x | x9 | x20 | x12 | x9 | x15 | x15 | %11
 x5[K:bass] x2[K:treble] x5 | x6[K:bass] x2 | x8 | x8 | x8 | x4[K:bass] x4[K:treble] x11/2 | %17
[K:bass] x4[K:treble] x11/2 |[K:bass] x8 |[K:treble] x9 | x10 | x8 | x8 | %23
 x17/4[K:bass] x5/2[K:treble] x5/4 | %24
 x/4[K:bass] x21/8[K:treble] x5/4[K:bass] x5/2[K:treble] x11/8 | x8 | x8 | x8 | x8 | x8 | x8 | %31
 x12 | x12 | x13 | x13 | x21/2 | x8 | x4[K:bass] x/[K:treble] x7/2 | %38
[K:bass] x/[K:treble] x7/2[K:bass] x/[K:treble] x7/2 |[K:bass] x3[K:treble] x6 | x10 | x10 | x8 | %43
 x8 | x9 | x16 | x5[K:bass] x4 |[K:treble] x23/2 | x/3[K:bass] x29/3 | x8 | x8 | x8 | %52
 x4[K:bass] x8 | x7[K:treble] x | x8 | x8 | x8 | x8 | x8 | x8 | x8 | x8 | x8 | x8 | x8 | x8 | x8 | %67
 x35/4 | x8 | x8 | x8 |[K:F][K:bass] x8 | x8 | x8 | x8 | x8 | x8 ||[K:Bb] x8 | x8 | x8 | x8 | x8 | %82
 x8 | x8 | x8 | x8 | x8 | x8 | x8 | x8 | x8 | x8 | x8 | x8 | x8 | x8 | x8 | x8 | x8 | x8 | x8 | %101
 x8 | x8 | x8 | !tenuto!a x7 |[K:bass] x8 | x8 | x8 | x8 | x8 | x8 |[K:treble] x8 | x8 | x8 | x8 | %115
 x4[K:bass] x4 | x8 |[K:treble] x9/2[K:bass] x7/2 | x8 |[K:treble] x9/2[K:bass] x7/2 | x8 | %121
[K:treble] x8 | x35/4 | x8 | x8 | x8 | x8 | x3 | x3/2[K:bass] x13/2 |[K:treble] x8 | %130
 x3/2[K:bass] x13/2 |[K:treble] x8 | x3/2[K:bass] x13/2 |[K:treble] x8 | x3/2[K:bass] x13/2 | %135
[K:treble] x8 | x8 | x8 | x8 | x8 | x3[K:bass] x5 | x/[K:treble] x2[K:bass] x11/2 | %142
 x/[K:treble] x2[K:bass] x11/2 | x8 | x8 | x8 | x8 | x8 | x8 | x8 | x8 | x8 |[K:treble] x8 | x8 | %154
 x8 | x8 | x8 | x8 | x8 | x8 | x8 | x8 | x8 | x8 | x8 | x8 | x8 | x8 | x8 | x8 |] %170

